packages/ffe-icons/icons/filled/sm/bubble_chart.svg

<svg xmlns="http://www.w3.org/2000/svg" height="20" viewBox="0 -960 960 960" width="20"><path d="M584.244-164.001q-38.551 0-65.628-26.987-27.077-26.986-27.077-65.537 0-38.552 26.986-65.628 26.986-27.077 65.538-27.077 38.552 0 65.628 26.986 27.077 26.986 27.077 65.538 0 38.551-26.986 65.628-26.986 27.077-65.538 27.077Zm75.974-264q-77.14 0-130.679-53.321-53.538-53.32-53.538-130.46 0-77.14 53.321-130.679 53.32-53.538 130.46-53.538 77.14 0 130.679 53.321 53.538 53.32 53.538 130.46 0 77.14-53.321 130.679-53.32 53.538-130.46 53.538Zm-366.47 172.615q-53.52 0-91.633-37.48-38.114-37.481-38.114-91.134t37.481-91.134q37.48-37.48 91.134-37.48 53.653 0 91.134 37.48 37.48 37.481 37.48 91.134t-36.98 91.134q-36.981 37.48-90.502 37.48Z"/></svg>

<svg xmlns="http://www.w3.org/2000/svg" height="20" viewBox="0 -960 960 960" width="20"><path d="M584.24-164q-38.55 0-65.62-26.99-27.08-26.98-27.08-65.54 0-38.55 26.99-65.62 26.98-27.08 65.53-27.08t65.63 26.99q27.08 26.98 27.08 65.53 0 38.56-26.99 65.63Q622.8-164 584.24-164Zm75.98-264q-77.14 0-130.68-53.32Q476-534.64 476-611.78q0-77.14 53.32-130.68Q582.64-796 659.78-796q77.14 0 130.68 53.32Q844-689.36 844-612.22q0 77.14-53.32 130.68Q737.36-428 660.22-428ZM293.75-255.39q-53.52 0-91.64-37.48Q164-330.35 164-384t37.48-91.13q37.48-37.48 91.14-37.48 53.65 0 91.13 37.48T421.23-384q0 53.65-36.98 91.13t-90.5 37.48Z"/></svg>
